X: 2101
Q: "Reel."
M: C
L: 1/8
K: C
uG |\
c2(ce) dBGB | (AF) {FG}F2 GECE |\
uf |\
egec (Bd)g2 | (Ac)f2 (GB)e2 |
egec BdgB | AcfA GBeG |\


